X:1
T:The Irish Labourer
M:6/8
L:1/4
K:F
 C/2| F G/2 A G/2| F D/2 C C/2| D/2 F E G/2| F z/2 z F/2| B c/2 d B/2|\
 A B/2 c A/4A/4| G F/2 D F/2| G z/2 z A/2| B c/2 d B/2| A B/2 c A/4A/4|\
 G F/4F/4 D F/2| G3/2 z F/2| A G/2 G F/2| D C/2 A, C/4C/4| D F/2 E G/2|\
 F3/2- F z/2|
